;PYCAM-META-DATA: Filename: /home/marcell/Dropbox/3dtest/milltests/m.dxf
;PYCAM-META-DATA: Timestamp: 2015-06-01 16:47:40.741981
;PYCAM-META-DATA: Version: 0.5.1
;Estimated machine time: 3 minutes
G40 (disable tool radius compensation)
G49 (disable tool length compensation)
G80 (cancel modal motion)
G54 (select coordinate system 1)
G90 (disable incremental moves)
G21 (metric)
G61 (exact path mode)
F200.00000
S1000.00000
;PYCAM_TOOLPATH_SETTINGS: START
;[Bounds]
;maxz = 0.0
;maxx = 59.5592814
;maxy = 42.10864
;minx = -1.7152914
;miny = -4.73264
;minz = 0.0
;
;[Tool]
;torus_radius = 0.25
;speed = 1000.0
;shape = SphericalCutter
;tool_radius = 0.5
;feedrate = 200.0
;
;[Process]
;engrave_offset = 1.0
;step_down = 1.0
;generator = EngraveCutter
;postprocessor = SimpleCutter
;milling_style = conventional
;material_allowance = 0.0
;pocketing_type = none
;path_direction = x
;
;PYCAM_TOOLPATH_SETTINGS: END
T3 M6
G0 Z25.0000
M3 (start spindle)
G04 P3 (wait for 3 seconds)
 X6.7980 Y6.6138
G1 Z0.0000
 Y7.3862
 X7.4019 Y7.8678
 X8.1550 Y7.6959
 X8.4901 Y7.0000
 X8.1549 Y6.3041
 X7.4019 Y6.1322
 X6.7980 Y6.6138
G0 Z25.0000
 X28.6981
G1 Z0.0000
 Y7.3862
 X29.3019 Y7.8678
 X30.0550 Y7.6959
 X30.3901 Y7.0000
 X30.0550 Y6.3041
 X29.3019 Y6.1322
 X28.6981 Y6.6138
G0 Z25.0000
 X49.3981
G1 Z0.0000
 Y7.3862
 X50.0019 Y7.8678
 X50.7550 Y7.6959
 X51.0901 Y7.0000
 X50.7550 Y6.3041
 X50.0019 Y6.1322
 X49.3981 Y6.6138
G0 Z25.0000
 X11.5445 Y33.6620
G1 Z0.0000
 X11.4559 Y35.4196
 X11.4204 Y36.1502
 X11.4022 Y36.4347
 X11.3818 Y36.6652
 X11.2399 Y37.6720
 X3.4800
 X3.6171 Y36.4253
 X3.6321 Y36.2249
 X3.6483 Y35.9406
 X3.6649 Y35.5791
 X3.6986 Y34.6921
 X3.7324 Y33.6421
 X3.7482 Y33.0705
 X3.7620 Y32.4818
 X3.7736 Y31.8758
 X3.7831 Y31.2532
 X3.7958 Y30.0169
 X3.7989 Y29.4228
 X3.8000 Y28.8421
 Y-1.0000
 X11.8800
 Y21.2381
 X11.9159 Y22.5271
 X12.0216 Y23.7179
 X12.1960 Y24.8235
 X12.4379 Y25.8456
 X12.7410 Y26.7836
 X13.0983 Y27.6325
 X13.5066 Y28.3919
 X13.9656 Y29.0657
 X14.4730 Y29.6588
 X15.0256 Y30.1730
 X15.6247 Y30.6115
 X16.2726 Y30.9764
 X16.9657 Y31.2642
 X17.7026 Y31.4708
 X18.4896 Y31.5963
 X19.3383 Y31.6392
 X20.1586 Y31.6131
 X20.9061 Y31.5352
 X21.5692 Y31.4092
 X22.1418 Y31.2406
 X22.6280 Y31.0276
 X23.0505 Y30.7603
 X23.4253 Y30.4319
 X23.7599 Y30.0338
 X24.0591 Y29.5538
 X24.3227 Y28.9803
 X24.5462 Y28.3086
 X24.7256 Y27.5348
 X24.8644 Y26.6450
 X24.9657 Y25.6316
 X25.0271 Y24.4995
 X25.0480 Y23.2427
 Y-1.0000
 X33.0640
 Y21.2384
 X33.0999 Y22.5591
 X33.2058 Y23.7752
 X33.3804 Y24.8991
 X33.6224 Y25.9326
 X33.9255 Y26.8759
 X34.2822 Y27.7253
 X34.6895 Y28.4808
 X35.1464 Y29.1464
 X35.6512 Y29.7280
 X36.2008 Y30.2295
 X36.7963 Y30.6534
 X37.4421 Y31.0034
 X38.1366 Y31.2790
 X38.8775 Y31.4774
 X39.6690 Y31.5981
 X40.5212 Y31.6392
 X41.3426 Y31.6131
 X42.0901 Y31.5352
 X42.7532 Y31.4092
 X43.3258 Y31.2406
 X43.8120 Y31.0276
 X44.2345 Y30.7603
 X44.6093 Y30.4319
 X44.9439 Y30.0338
 X45.2431 Y29.5538
 X45.5067 Y28.9803
 X45.7302 Y28.3086
 X45.9096 Y27.5348
 X46.0484 Y26.6450
 X46.1497 Y25.6316
 X46.2111 Y24.4995
 X46.2320 Y23.2427
 Y-1.0000
 X54.2480
 Y24.4656
 X54.2090 Y26.1404
 X54.0904 Y27.7169
 X53.8911 Y29.1851
 X53.6087 Y30.5478
 X53.2354 Y31.8087
 X52.7635 Y32.9674
 X52.1898 Y34.0201
 X51.5127 Y34.9613
 X50.7302 Y35.7892
 X49.8438 Y36.5017
 X48.8595 Y37.0955
 X47.7853 Y37.5684
 X46.6268 Y37.9266
 X45.3835 Y38.1783
 X44.0550 Y38.3275
 X42.6427 Y38.3765
 X41.5241 Y38.3437
 X40.4617 Y38.2449
 X39.4518 Y38.0784
 X38.4995 Y37.8438
 X37.6025 Y37.5483
 X36.7499 Y37.1966
 X35.9391 Y36.7872
 X35.1721 Y36.3205
 X34.4509 Y35.7987
 X33.7760 Y35.2227
 X33.1479 Y34.5934
 X32.5716 Y33.9166
 X32.0410 Y33.2048
 X31.6847 Y32.6716
 X30.9500 Y34.0900
 X29.8958 Y35.4463
 X28.6214 Y36.5353
 X27.1335 Y37.3569
 X25.4385 Y37.9306
 X23.5461 Y38.2672
 X21.4677 Y38.3768
 X20.3428 Y38.3437
 X19.2886 Y38.2447
 X18.2922 Y38.0776
 X17.3588 Y37.8416
 X16.4851 Y37.5440
 X15.6596 Y37.1893
 X14.8799 Y36.7758
 X14.1494 Y36.3044
 X13.4683 Y35.7787
 X12.8331 Y35.1999
 X12.2436 Y34.5684
 X11.7054 Y33.8916
 X11.5445 Y33.6620
G0 Z25.0000
M5 (stop spindle)
G04 P3 (wait for 3 seconds)
G0 Z25.0000
M2 (end program)
