;PYCAM-META-DATA: Filename: /home/marcell/Dropbox/3dtest/strat/naked.svg
;PYCAM-META-DATA: Timestamp: 2015-06-26 20:41:06.250568
;PYCAM-META-DATA: Version: 0.5.1
;Estimated machine time: 1 minutes
G40 (disable tool radius compensation)
G49 (disable tool length compensation)
G80 (cancel modal motion)
G54 (select coordinate system 1)
G90 (disable incremental moves)
G21 (metric)
G61 (exact path mode)
F200.00000
S1000.00000
;PYCAM_TOOLPATH_SETTINGS: START
;[Bounds]
;maxz = 0.0
;maxx = 119.023740593
;maxy = 87.9118484875
;minx = 59.1921694075
;miny = 46.0740015125
;minz = 0.0
;
;[Tool]
;torus_radius = 0.25
;speed = 1000.0
;shape = SphericalCutter
;tool_radius = 0.5
;feedrate = 200.0
;
;[Process]
;engrave_offset = 1.0
;step_down = 1.0
;generator = EngraveCutter
;postprocessor = SimpleCutter
;milling_style = conventional
;material_allowance = 0.0
;pocketing_type = none
;path_direction = x
;
;PYCAM_TOOLPATH_SETTINGS: END
T3 M6
G0 Z25.0000
M3 (start spindle)
G04 P3 (wait for 3 seconds)
 X111.9420 Y80.8121
G1 Z0.0000
 X112.0561 Y80.7594
 X112.2152 Y80.7005
 X112.3768 Y80.6530
 X112.5408 Y80.6172
 X112.7056 Y80.5923
 X112.8704 Y80.5780
 X113.0343 Y80.5735
 X113.2031 Y80.5790
 X113.3692 Y80.5954
 X113.5345 Y80.6210
 X113.7019 Y80.6581
 X113.8667 Y80.7061
 X114.0323 Y80.7659
 X114.1958 Y80.8392
 X114.3545 Y80.9242
 X114.5111 Y81.0242
 X114.6637 Y81.1403
 X114.8062 Y81.2703
 X114.9398 Y81.4145
 X115.0626 Y81.5751
 X115.1726 Y81.7510
 X115.2656 Y81.9397
 X115.3412 Y82.1389
 X115.3956 Y82.3409
 X115.4122 Y82.4295
 X115.4235 Y82.5038
 X115.4338 Y82.5881
 X115.4413 Y82.6738
 X115.4473 Y82.7607
 X115.4518 Y82.8553
 X115.4544 Y82.9582
 Y83.0664
 X115.4519 Y83.1766
 X115.4467 Y83.2954
 X115.4374 Y83.4188
 X115.4248 Y83.5435
 X115.4078 Y83.6736
 X115.3856 Y83.8090
 X115.3574 Y83.9476
 X115.3231 Y84.0880
 X115.2813 Y84.2319
 X115.2316 Y84.3759
 X115.1733 Y84.5216
 X115.1028 Y84.6711
 X115.0204 Y84.8195
 X114.9248 Y84.9665
 X114.8133 Y85.1113
 X114.6855 Y85.2506
 X114.5417 Y85.3809
 X114.3805 Y85.5011
 X114.2015 Y85.6073
 X114.0099 Y85.6950
 X113.8075 Y85.7632
 X113.5955 Y85.8109
 X113.3792 Y85.8369
 X113.1637 Y85.8427
 X112.9770 Y85.8327
 X112.7931 Y85.8105
 X112.6070 Y85.7760
 X112.5094 Y85.7520
 X112.4556 Y85.7459
 X112.3295 Y85.7296
 X112.2028 Y85.7122
 X112.0717 Y85.6929
 X111.9375 Y85.6719
 X111.8010 Y85.6492
 X111.6630 Y85.6252
 X111.5215 Y85.5997
 X111.3793 Y85.5729
 X111.2341 Y85.5450
 X111.0867 Y85.5156
 X110.9377 Y85.4852
 X110.7874 Y85.4537
 X110.6355 Y85.4214
 X110.4818 Y85.3879
 X110.3272 Y85.3536
 X110.1714 Y85.3184
 X110.0144 Y85.2823
 X109.8575 Y85.2457
 X109.6997 Y85.2086
 X109.5422 Y85.1707
 X109.3836 Y85.1326
 X109.2258 Y85.0939
 X109.0672 Y85.0549
 X108.9090 Y85.0153
 X108.7525 Y84.9759
 X108.5962 Y84.9363
 X108.4396 Y84.8964
 X108.2849 Y84.8563
 X108.1324 Y84.8168
 X107.9799 Y84.7770
 X107.8292 Y84.7373
 X107.6809 Y84.6981
 X107.5339 Y84.6590
 X107.3897 Y84.6203
 X107.2480 Y84.5823
 X107.1082 Y84.5447
 X106.9701 Y84.5072
 X106.8366 Y84.4707
 X106.7061 Y84.4352
 X106.5780 Y84.4002
 X106.4538 Y84.3661
 X106.3324 Y84.3328
 X106.2159 Y84.3004
 X106.1035 Y84.2696
 X105.9944 Y84.2393
 X105.8895 Y84.2103
 X105.7901 Y84.1827
 X105.6945 Y84.1563
 X105.6054 Y84.1315
 X105.5207 Y84.1083
 X105.4398 Y84.0859
 X105.3680 Y84.0661
 X105.2998 Y84.0477
 X105.2751 Y84.0409
 X105.1687 Y84.0796
 X104.6388 Y83.8317
 X104.4662 Y83.7371
 X104.2994 Y83.6298
 X104.1411 Y83.5086
 X103.9916 Y83.3719
 X103.8515 Y83.2156
 X103.7271 Y83.0411
 X103.6233 Y82.8521
 X103.5426 Y82.6515
 X103.4863 Y82.4414
 X103.4565 Y82.2294
 X103.4504 Y82.0188
 X103.4672 Y81.8108
 X103.5035 Y81.6107
 X103.5560 Y81.4190
 X103.3435 Y82.0095
 X86.0954 Y70.7145
 Y69.7364
 X85.1503 Y69.8719
 X84.9781 Y69.8964
 X84.8954 Y69.9083
 X84.8150 Y69.9204
 X84.7372 Y69.9325
 X84.6620 Y69.9450
 X84.5898 Y69.9578
 X84.5203 Y69.9710
 X84.4543 Y69.9847
 X84.3916 Y69.9989
 X84.3323 Y70.0136
 X84.2774 Y70.0285
 X84.2266 Y70.0439
 X84.1794 Y70.0596
 X84.1369 Y70.0754
 X84.0985 Y70.0912
 X84.0643 Y70.1068
 X84.0348 Y70.1218
 X84.0092 Y70.1363
 X83.9874 Y70.1502
 X83.9693 Y70.1630
 X83.9540 Y70.1752
 X83.9411 Y70.1868
 X83.9299 Y70.1980
 X83.9199 Y70.2095
 X83.9104 Y70.2218
 X83.9010 Y70.2357
 X83.8913 Y70.2521
 X83.8874 Y70.2599
 X83.8778 Y70.3380
 X83.8664 Y70.5010
 X83.8645 Y70.6468
 X83.8709 Y70.7765
 X83.8840 Y70.8919
 X83.9028 Y70.9944
 X83.9263 Y71.0862
 X83.9540 Y71.1696
 X83.9858 Y71.2466
 X84.0218 Y71.3191
 X84.0625 Y71.3891
 X84.1087 Y71.4583
 X84.1606 Y71.5272
 X84.2190 Y71.5969
 X84.2843 Y71.6679
 X84.3566 Y71.7408
 X84.4355 Y71.8155
 X84.5212 Y71.8925
 X84.6132 Y71.9724
 X84.7110 Y72.0553
 X84.8140 Y72.1421
 X84.9219 Y72.2336
 X85.0337 Y72.3305
 X85.1484 Y72.4338
 X85.2657 Y72.5449
 X85.3840 Y72.6649
 X85.5019 Y72.7951
 X85.6181 Y72.9369
 X85.7301 Y73.0910
 X85.8360 Y73.2585
 X85.9330 Y73.4393
 X86.0171 Y73.6295
 X86.0789 Y73.8020
 X86.1275 Y73.9732
 X86.1636 Y74.1456
 X86.1871 Y74.3183
 X86.1978 Y74.4906
 X86.1958 Y74.6615
 X86.1813 Y74.8298
 X86.1548 Y74.9946
 X86.1166 Y75.1551
 X86.0676 Y75.3105
 X86.0084 Y75.4601
 X85.9400 Y75.6030
 X85.8631 Y75.7391
 X85.7784 Y75.8683
 X85.6867 Y75.9904
 X85.5888 Y76.1052
 X85.4850 Y76.2128
 X85.3760 Y76.3133
 X85.2623 Y76.4065
 X85.1443 Y76.4924
 X85.0223 Y76.5715
 X84.8966 Y76.6433
 X84.7675 Y76.7082
 X84.6350 Y76.7659
 X84.4997 Y76.8164
 X84.3614 Y76.8595
 X84.2205 Y76.8950
 X84.0773 Y76.9228
 X83.9319 Y76.9425
 X83.7841 Y76.9538
 X83.6347 Y76.9563
 X83.4926 Y76.9500
 X83.2823 Y76.9309
 X83.0828 Y76.9065
 X82.8864 Y76.8764
 X82.6930 Y76.8406
 X82.5024 Y76.7991
 X82.3150 Y76.7523
 X82.1307 Y76.7002
 X81.9496 Y76.6430
 X81.7714 Y76.5807
 X81.5967 Y76.5138
 X81.4252 Y76.4424
 X81.2567 Y76.3665
 X81.0913 Y76.2864
 X80.9293 Y76.2023
 X80.7703 Y76.1145
 X80.6144 Y76.0229
 X80.4616 Y75.9281
 X80.3117 Y75.8300
 X80.1646 Y75.7288
 X80.0203 Y75.6246
 X79.8788 Y75.5178
 X79.7400 Y75.4085
 X79.6037 Y75.2966
 X79.4701 Y75.1828
 X79.3386 Y75.0668
 X79.2093 Y74.9487
 X79.0823 Y74.8289
 X78.9574 Y74.7075
 X78.8345 Y74.5845
 X78.7134 Y74.4602
 X78.5941 Y74.3344
 X78.4765 Y74.2076
 X78.3605 Y74.0799
 X78.2460 Y73.9511
 X78.1330 Y73.8216
 X78.0212 Y73.6914
 X77.9107 Y73.5606
 X77.8014 Y73.4295
 X77.6931 Y73.2978
 X77.5858 Y73.1661
 X77.4795 Y73.0343
 X77.3740 Y72.9024
 X77.2692 Y72.7706
 X77.1651 Y72.6391
 X77.0617 Y72.5079
 X76.9588 Y72.3772
 X76.8565 Y72.2470
 X76.7544 Y72.1174
 X76.6528 Y71.9886
 X76.5516 Y71.8609
 X76.4505 Y71.7340
 X76.3496 Y71.6082
 X76.2489 Y71.4837
 X76.1481 Y71.3604
 X76.0475 Y71.2387
 X75.9468 Y71.1184
 X75.8461 Y70.9999
 X75.7453 Y70.8831
 X75.6442 Y70.7681
 X75.5431 Y70.6552
 X75.4416 Y70.5443
 X75.3399 Y70.4355
 X75.2380 Y70.3292
 X75.1639 Y70.2539
 X75.1611 Y70.2519
 X75.1459 Y70.2416
 X75.1251 Y70.2283
 X75.0980 Y70.2119
 X75.0655 Y70.1934
 X75.0262 Y70.1721
 X74.9802 Y70.1487
 X74.9281 Y70.1237
 X74.8685 Y70.0969
 X74.8018 Y70.0686
 X74.7278 Y70.0392
 X74.6456 Y70.0087
 X74.5558 Y69.9775
 X74.4578 Y69.9458
 X74.3514 Y69.9139
 X74.2365 Y69.8820
 X74.1125 Y69.8502
 X73.9796 Y69.8190
 X73.8374 Y69.7884
 X73.6858 Y69.7588
 X73.5244 Y69.7304
 X73.3532 Y69.7034
 X73.1717 Y69.6781
 X72.9800 Y69.6547
 X72.7779 Y69.6334
 X72.5581 Y69.6139
 X72.2257 Y69.5852
 X71.8893 Y69.5508
 X71.5578 Y69.5119
 X71.2315 Y69.4685
 X70.9105 Y69.4211
 X70.5952 Y69.3697
 X70.2857 Y69.3146
 X69.9821 Y69.2560
 X69.6847 Y69.1942
 X69.3937 Y69.1293
 X69.1094 Y69.0615
 X68.8318 Y68.9912
 X68.5610 Y68.9184
 X68.2975 Y68.8434
 X68.0412 Y68.7664
 X67.7925 Y68.6874
 X67.5515 Y68.6069
 X67.3184 Y68.5250
 X67.0932 Y68.4417
 X66.8759 Y68.3572
 X66.6669 Y68.2718
 X66.4664 Y68.1854
 X66.2742 Y68.0983
 X66.0904 Y68.0104
 X65.9151 Y67.9218
 X65.7481 Y67.8324
 X65.5894 Y67.7419
 X65.4388 Y67.6504
 X65.2960 Y67.5569
 X65.1603 Y67.4609
 X65.0315 Y67.3611
 X64.9172 Y67.2630
 X64.8585 Y67.2086
 X64.8058 Y67.1580
 X64.7517 Y67.1043
 X64.6968 Y67.0481
 X64.6404 Y66.9886
 X64.5826 Y66.9257
 X64.5240 Y66.8600
 X64.4644 Y66.7911
 X64.4034 Y66.7186
 X64.3419 Y66.6430
 X64.2798 Y66.5644
 X64.2169 Y66.4823
 X64.1536 Y66.3971
 X64.0900 Y66.3085
 X64.0261 Y66.2166
 X63.9623 Y66.1215
 X63.8985 Y66.0232
 X63.8349 Y65.9215
 X63.7716 Y65.8166
 X63.7090 Y65.7085
 X63.6469 Y65.5971
 X63.5856 Y65.4824
 X63.5254 Y65.3646
 X63.4662 Y65.2434
 X63.4083 Y65.1191
 X63.3518 Y64.9917
 X63.2968 Y64.8610
 X63.2436 Y64.7271
 X63.1924 Y64.5901
 X63.1431 Y64.4499
 X63.0961 Y64.3067
 X63.0515 Y64.1604
 X63.0094 Y64.0110
 X62.9701 Y63.8586
 X62.9336 Y63.7032
 X62.9001 Y63.5449
 X62.8699 Y63.3836
 X62.8430 Y63.2195
 X62.8197 Y63.0526
 X62.8000 Y62.8829
 X62.7842 Y62.7105
 X62.7724 Y62.5354
 X62.7647 Y62.3577
 X62.7614 Y62.1774
 X62.7626 Y61.9947
 X62.7683 Y61.8095
 X62.7788 Y61.6219
 X62.7942 Y61.4321
 X62.8147 Y61.2401
 X62.8403 Y61.0458
 X62.8712 Y60.8495
 X62.9075 Y60.6510
 X62.9494 Y60.4507
 X62.9970 Y60.2484
 X63.0503 Y60.0444
 X63.1096 Y59.8384
 X63.1749 Y59.6308
 X63.2463 Y59.4215
 X63.3240 Y59.2105
 X63.4080 Y58.9980
 X63.4985 Y58.7839
 X63.5955 Y58.5683
 X63.6992 Y58.3513
 X63.8085 Y58.1353
 X64.0379 Y57.6997
 X64.2704 Y57.2697
 X64.5069 Y56.8435
 X64.7472 Y56.4216
 X64.9910 Y56.0044
 X65.2380 Y55.5926
 X65.4880 Y55.1866
 X65.7407 Y54.7868
 X65.9957 Y54.3940
 X66.2529 Y54.0085
 X66.5121 Y53.6308
 X66.7729 Y53.2616
 X67.0351 Y52.9013
 X67.2985 Y52.5503
 X67.5628 Y52.2092
 X67.8280 Y51.8784
 X68.0938 Y51.5586
 X68.3600 Y51.2500
 X68.6265 Y50.9534
 X68.8932 Y50.6689
 X69.1601 Y50.3973
 X69.4271 Y50.1388
 X69.6943 Y49.8940
 X69.9619 Y49.6634
 X70.2300 Y49.4474
 X70.4989 Y49.2466
 X70.7692 Y49.0616
 X71.0414 Y48.8931
 X71.3163 Y48.7419
 X71.5949 Y48.6093
 X71.8781 Y48.4967
 X72.1538 Y48.4102
 X72.4344 Y48.3394
 X72.7062 Y48.2804
 X72.9814 Y48.2309
 X73.2602 Y48.1917
 X73.5424 Y48.1635
 X73.8280 Y48.1472
 X74.1166 Y48.1436
 X74.4080 Y48.1534
 X74.7019 Y48.1773
 X74.9978 Y48.2160
 X75.2954 Y48.2700
 X75.5942 Y48.3400
 X75.8938 Y48.4262
 X76.1937 Y48.5291
 X76.4937 Y48.6489
 X76.7934 Y48.7860
 X77.0925 Y48.9405
 X77.3910 Y49.1126
 X77.6888 Y49.3026
 X77.9856 Y49.5106
 X78.2817 Y49.7368
 X78.5773 Y49.9817
 X78.8723 Y50.2454
 X79.1668 Y50.5282
 X79.4611 Y50.8306
 X79.7554 Y51.1531
 X80.0499 Y51.4958
 X80.3447 Y51.8595
 X80.6399 Y52.2444
 X80.9359 Y52.6512
 X81.2328 Y53.0803
 X81.5525 Y53.5655
 X81.6868 Y53.8221
 X81.7927 Y54.0083
 X81.9014 Y54.1841
 X82.0126 Y54.3501
 X82.1265 Y54.5069
 X82.2429 Y54.6550
 X82.3617 Y54.7948
 X82.4831 Y54.9270
 X82.6072 Y55.0520
 X82.7340 Y55.1703
 X82.8635 Y55.2824
 X82.9960 Y55.3887
 X83.1316 Y55.4896
 X83.2702 Y55.5854
 X83.4122 Y55.6764
 X83.5576 Y55.7632
 X83.7065 Y55.8458
 X83.8588 Y55.9244
 X84.0147 Y55.9995
 X84.1742 Y56.0711
 X84.3372 Y56.1395
 X84.5038 Y56.2050
 X84.6737 Y56.2677
 X84.8471 Y56.3278
 X85.0239 Y56.3857
 X85.2039 Y56.4415
 X85.3870 Y56.4955
 X85.5731 Y56.5479
 X85.7620 Y56.5990
 X85.9539 Y56.6490
 X86.1483 Y56.6983
 X86.3453 Y56.7472
 X86.4273 Y56.7672
 X86.5111 Y56.7874
 X86.5969 Y56.8079
 X86.6841 Y56.8287
 X86.7728 Y56.8499
 X86.8631 Y56.8716
 X86.9544 Y56.8937
 X87.0470 Y56.9164
 X87.1406 Y56.9397
 X87.2353 Y56.9636
 X87.3310 Y56.9884
 X87.4273 Y57.0139
 X87.5244 Y57.0403
 X87.6224 Y57.0678
 X87.7208 Y57.0963
 X87.8196 Y57.1259
 X87.9189 Y57.1568
 X88.0186 Y57.1890
 X88.1186 Y57.2226
 X88.2188 Y57.2577
 X88.3190 Y57.2945
 X88.4193 Y57.3329
 X88.5199 Y57.3733
 X88.6202 Y57.4157
 X88.7202 Y57.4601
 X88.8201 Y57.5068
 X88.9196 Y57.5558
 X89.0189 Y57.6075
 X89.1176 Y57.6618
 X89.2154 Y57.7188
 X89.3125 Y57.7788
 X89.4088 Y57.8420
 X89.5040 Y57.9085
 X89.5978 Y57.9784
 X89.6903 Y58.0519
 X89.7811 Y58.1291
 X89.8701 Y58.2101
 X89.9570 Y58.2952
 X90.0415 Y58.3844
 X90.1233 Y58.4777
 X90.2020 Y58.5749
 X90.2776 Y58.6764
 X90.3494 Y58.7817
 X90.4174 Y58.8911
 X90.4814 Y59.0046
 X90.5408 Y59.1215
 X90.5956 Y59.2423
 X90.6455 Y59.3663
 X90.6905 Y59.4936
 X90.7301 Y59.6237
 X90.7645 Y59.7563
 X90.7937 Y59.8921
 X90.8175 Y60.0302
 X90.8358 Y60.1701
 X90.8489 Y60.3123
 X90.8567 Y60.4570
 X90.8591 Y60.6035
 X90.8563 Y60.7517
 X90.8484 Y60.9021
 X90.8353 Y61.0544
 X90.8171 Y61.2089
 X90.7938 Y61.3654
 X90.7656 Y61.5239
 X90.7218 Y61.7360
 X90.6757 Y61.8683
 X90.6235 Y61.9730
 X90.5792 Y62.0472
 X90.5361 Y62.1109
 X90.4914 Y62.1707
 X90.4430 Y62.2299
 X90.3902 Y62.2893
 X90.3327 Y62.3488
 X90.2700 Y62.4085
 X90.2019 Y62.4682
 X90.1284 Y62.5274
 X90.0485 Y62.5864
 X89.9624 Y62.6441
 X89.8702 Y62.7001
 X89.7715 Y62.7539
 X89.6672 Y62.8044
 X89.5565 Y62.8518
 X89.4397 Y62.8949
 X89.3172 Y62.9334
 X89.1886 Y62.9666
 X89.0554 Y62.9939
 X88.9171 Y63.0151
 X88.7740 Y63.0295
 X88.6266 Y63.0370
 X88.4747 Y63.0371
 X88.3193 Y63.0296
 X88.1604 Y63.0143
 X87.9978 Y62.9909
 X87.8321 Y62.9593
 X87.6633 Y62.9194
 X87.4913 Y62.8710
 X87.3340 Y62.8197
 X87.1970 Y62.7748
 X87.0819 Y62.7418
 X86.9712 Y62.7148
 X86.8650 Y62.6935
 X86.7636 Y62.6777
 X86.6666 Y62.6670
 X86.5749 Y62.6612
 X86.4881 Y62.6600
 X86.4062 Y62.6630
 X86.3294 Y62.6699
 X86.2572 Y62.6804
 X86.1898 Y62.6942
 X86.1266 Y62.7110
 X86.0675 Y62.7305
 X86.0121 Y62.7527
 X85.9601 Y62.7774
 X85.9108 Y62.8049
 X85.8636 Y62.8352
 X85.8185 Y62.8685
 X85.7750 Y62.9052
 X85.7327 Y62.9457
 X85.6913 Y62.9907
 X85.6511 Y63.0402
 X85.6119 Y63.0951
 X85.5737 Y63.1559
 X85.5367 Y63.2230
 X85.5012 Y63.2966
 X85.4698 Y63.3719
 X105.8812 Y77.8299
 X105.6758 Y78.1342
 X106.3933 Y78.2383
 X106.4654 Y78.2442
 X106.5489 Y78.2464
 X106.6403 Y78.2444
 X106.7411 Y78.2376
 X106.8505 Y78.2265
 X106.9654 Y78.2106
 X107.0875 Y78.1902
 X107.2149 Y78.1656
 X107.3475 Y78.1369
 X107.4846 Y78.1046
 X107.6256 Y78.0692
 X107.7687 Y78.0310
 X107.9164 Y77.9900
 X108.0658 Y77.9475
 X108.6028 Y77.7901
 X109.1040 Y78.0499
 X109.2618 Y78.1404
 X109.4139 Y78.2353
 X109.5636 Y78.3363
 X109.7073 Y78.4415
 X109.8451 Y78.5487
 X109.9801 Y78.6603
 X110.1112 Y78.7750
 X110.2373 Y78.8911
 X110.3602 Y79.0090
 X110.4804 Y79.1292
 X110.5971 Y79.2504
 X110.7112 Y79.3725
 X110.8232 Y79.4956
 X110.9327 Y79.6191
 X111.0399 Y79.7425
 X111.1451 Y79.8654
 X111.2491 Y79.9883
 X111.3518 Y80.1107
 X111.4523 Y80.2312
 X111.5528 Y80.3513
 X111.6522 Y80.4705
 X111.7502 Y80.5872
 X111.8477 Y80.7022
 X111.9420 Y80.8121
G0 Z25.0000
M5 (stop spindle)
G04 P3 (wait for 3 seconds)
G0 Z25.0000
M2 (end program)
