;PYCAM-META-DATA: Filename: /home/marcell/Dropbox/3dtest/mill/spacer.dxf
;PYCAM-META-DATA: Timestamp: 2015-05-29 15:44:38.301378
;PYCAM-META-DATA: Version: 0.5.1
;Estimated machine time: 1 minutes
G40 (disable tool radius compensation)
G49 (disable tool length compensation)
G80 (cancel modal motion)
G54 (select coordinate system 1)
G90 (disable incremental moves)
G21 (metric)
G61 (exact path mode)
F200.00000
S1000.00000
;PYCAM_TOOLPATH_SETTINGS: START
;[Bounds]
;maxz = 0.0
;maxx = 10.9
;maxy = 10.9
;minx = -10.9
;miny = -10.9
;minz = 0.0
;
;[Tool]
;torus_radius = 0.25
;speed = 1000.0
;shape = SphericalCutter
;tool_radius = 0.5
;feedrate = 200.0
;
;[Process]
;engrave_offset = 0.0
;step_down = 1.0
;generator = EngraveCutter
;postprocessor = SimpleCutter
;overlap_percent = 0
;milling_style = conventional
;material_allowance = 0.0
;pocketing_type = none
;path_direction = x
;
;PYCAM_TOOLPATH_SETTINGS: END
T3 M6
G0 Z25.0000
M3 (start spindle)
G04 P3 (wait for 3 seconds)
 X-4.0000 Y0.0000
G1 Z0.0000
 X-3.9920 Y0.2510
 X-3.9680 Y0.5010
 X-3.9290 Y0.7500
 X-3.8740 Y0.9950
 X-3.8040 Y1.2360
 X-3.7190 Y1.4720
 X-3.6190 Y1.7030
 X-3.5050 Y1.9270
 X-3.3770 Y2.1430
 X-3.2360 Y2.3510
 X-3.0820 Y2.5500
 X-2.9160 Y2.7380
 X-2.7380 Y2.9160
 X-2.5500 Y3.0820
 X-2.3510 Y3.2360
 X-2.1430 Y3.3770
 X-2.0000 Y3.4620
 Y5.5000
 X2.0000
 Y3.4620
 X2.1430 Y3.3770
 X2.3510 Y3.2360
 X2.5500 Y3.0820
 X2.7380 Y2.9160
 X2.9160 Y2.7380
 X3.0820 Y2.5500
 X3.2360 Y2.3510
 X3.3770 Y2.1430
 X3.5050 Y1.9270
 X3.6190 Y1.7030
 X3.7190 Y1.4720
 X3.8040 Y1.2360
 X3.8740 Y0.9950
 X3.9290 Y0.7500
 X3.9680 Y0.5010
 X3.9920 Y0.2510
 X4.0000 Y0.0000
 X3.9920 Y-0.2510
 X3.9680 Y-0.5010
 X3.9290 Y-0.7500
 X3.8740 Y-0.9950
 X3.8040 Y-1.2360
 X3.7190 Y-1.4720
 X3.6190 Y-1.7030
 X3.5050 Y-1.9270
 X3.3770 Y-2.1430
 X3.2360 Y-2.3510
 X3.0820 Y-2.5500
 X2.9160 Y-2.7380
 X2.7380 Y-2.9160
 X2.5500 Y-3.0820
 X2.3510 Y-3.2360
 X2.1430 Y-3.3770
 X1.9270 Y-3.5050
 X1.7030 Y-3.6190
 X1.4720 Y-3.7190
 X1.2360 Y-3.8040
 X0.9950 Y-3.8740
 X0.7500 Y-3.9290
 X0.5010 Y-3.9680
 X0.2510 Y-3.9920
 X0.0000 Y-4.0000
 X-0.2510 Y-3.9920
 X-0.5010 Y-3.9680
 X-0.7500 Y-3.9290
 X-0.9950 Y-3.8740
 X-1.2360 Y-3.8040
 X-1.4720 Y-3.7190
 X-1.7030 Y-3.6190
 X-1.9270 Y-3.5050
 X-2.1430 Y-3.3770
 X-2.3510 Y-3.2360
 X-2.5500 Y-3.0820
 X-2.7380 Y-2.9160
 X-2.9160 Y-2.7380
 X-3.0820 Y-2.5500
 X-3.2360 Y-2.3510
 X-3.3770 Y-2.1430
 X-3.5050 Y-1.9270
 X-3.6190 Y-1.7030
 X-3.7190 Y-1.4720
 X-3.8040 Y-1.2360
 X-3.8740 Y-0.9950
 X-3.9290 Y-0.7500
 X-3.9680 Y-0.5010
 X-3.9920 Y-0.2510
 X-4.0000 Y0.0000
G0 Z25.0000
 X-9.5000
G1 Z0.0000
 X-9.4810 Y0.5970
 X-9.4250 Y1.1910
 X-9.3320 Y1.7800
 X-9.2020 Y2.3630
 X-9.0350 Y2.9360
 X-8.8330 Y3.4970
 X-8.5960 Y4.0450
 X-8.3250 Y4.5770
 X-8.0210 Y5.0900
 X-7.6860 Y5.5840
 X-7.3200 Y6.0560
 X-6.9250 Y6.5030
 X-6.5030 Y6.9250
 X-6.0560 Y7.3200
 X-5.5840 Y7.6860
 X-5.0900 Y8.0210
 X-4.5770 Y8.3250
 X-4.0450 Y8.5960
 X-3.4970 Y8.8330
 X-2.9360 Y9.0350
 X-2.3630 Y9.2020
 X-1.7800 Y9.3320
 X-1.1910 Y9.4250
 X-0.5970 Y9.4810
 X0.0000 Y9.5000
 X0.5970 Y9.4810
 X1.1910 Y9.4250
 X1.7800 Y9.3320
 X2.3630 Y9.2020
 X2.9360 Y9.0350
 X3.4970 Y8.8330
 X4.0450 Y8.5960
 X4.5770 Y8.3250
 X5.0900 Y8.0210
 X5.5840 Y7.6860
 X6.0560 Y7.3200
 X6.5030 Y6.9250
 X6.9250 Y6.5030
 X7.3200 Y6.0560
 X7.6860 Y5.5840
 X8.0210 Y5.0900
 X8.3250 Y4.5770
 X8.5960 Y4.0450
 X8.8330 Y3.4970
 X9.0350 Y2.9360
 X9.2020 Y2.3630
 X9.3320 Y1.7800
 X9.4250 Y1.1910
 X9.4810 Y0.5970
 X9.5000 Y0.0000
 X9.4810 Y-0.5970
 X9.4250 Y-1.1910
 X9.3320 Y-1.7800
 X9.2020 Y-2.3630
 X9.0350 Y-2.9360
 X8.8330 Y-3.4970
 X8.5960 Y-4.0450
 X8.3250 Y-4.5770
 X8.0210 Y-5.0900
 X7.6860 Y-5.5840
 X7.3200 Y-6.0560
 X6.9250 Y-6.5030
 X6.5030 Y-6.9250
 X6.0560 Y-7.3200
 X5.5840 Y-7.6860
 X5.0900 Y-8.0210
 X4.5770 Y-8.3250
 X4.0450 Y-8.5960
 X3.4970 Y-8.8330
 X2.9360 Y-9.0350
 X2.3630 Y-9.2020
 X1.7800 Y-9.3320
 X1.1910 Y-9.4250
 X0.5970 Y-9.4810
 X0.0000 Y-9.5000
 X-0.5970 Y-9.4810
 X-1.1910 Y-9.4250
 X-1.7800 Y-9.3320
 X-2.3630 Y-9.2020
 X-2.9360 Y-9.0350
 X-3.4970 Y-8.8330
 X-4.0450 Y-8.5960
 X-4.5770 Y-8.3250
 X-5.0900 Y-8.0210
 X-5.5840 Y-7.6860
 X-6.0560 Y-7.3200
 X-6.5030 Y-6.9250
 X-6.9250 Y-6.5030
 X-7.3200 Y-6.0560
 X-7.6860 Y-5.5840
 X-8.0210 Y-5.0900
 X-8.3250 Y-4.5770
 X-8.5960 Y-4.0450
 X-8.8330 Y-3.4970
 X-9.0350 Y-2.9360
 X-9.2020 Y-2.3630
 X-9.3320 Y-1.7800
 X-9.4250 Y-1.1910
 X-9.4810 Y-0.5970
 X-9.5000 Y0.0000
G0 Z25.0000
M5 (stop spindle)
G04 P3 (wait for 3 seconds)
G0 Z25.0000
M2 (end program)
